svgs/sharp-light/up-long.svg

<svg xmlns="http://www.w3.org/2000/svg" viewBox="0 0 320 512"><!--! Font Awesome Pro 6.5.2 by @fontawesome - https://fontawesome.com License - https://fontawesome.com/license (Commercial License) Copyright 2024 Fonticons, Inc. --><path d="M120 160v32l0 288h80l0-288V160h32 42.7L160 45.3 45.3 160H88h32zM32 192H0l0-32L137.4 22.6 160 0l22.6 22.6L320 160v32H288 264 232v32l0 256v32H200 120 88V480l0-256V192H56 32z"/></svg>

<svg xmlns="http://www.w3.org/2000/svg" viewBox="0 0 320 512"><!--! Font Awesome Pro 6.6.0 by @fontawesome - https://fontawesome.com License - https://fontawesome.com/license (Commercial License) Copyright 2024 Fonticons, Inc. --><path d="M120 160l0 32 0 288 80 0 0-288 0-32 32 0 42.7 0L160 45.3 45.3 160 88 160l32 0zM32 192L0 192l0-32L137.4 22.6 160 0l22.6 22.6L320 160l0 32-32 0-24 0-32 0 0 32 0 256 0 32-32 0-80 0-32 0 0-32 0-256 0-32-32 0-24 0z"/></svg>
